brandFactory_export/1.Light/Capas_1Light.svg

<?xml version="1.0" encoding="UTF-8"?>
<svg width="24px" height="24px" viewBox="0 0 24 24" version="1.1" xmlns="http://www.w3.org/2000/svg" xmlns:xlink="http://www.w3.org/1999/xlink">
    <title>1.Light/Capas_1Light</title>
    <g id="Symbols" stroke="none" stroke-width="1" fill="none" fill-rule="evenodd">
        <g id="1.Light/Capas_1Light" fill="#5CB615" fill-rule="nonzero">
            <path d="M11.7210084,17.312605 L1.20336134,11.8605042 L3.86218487,10.4689076 L11.1697479,14.2571429 C11.3445378,14.3478992 11.5294118,14.3915966 11.7210084,14.3915966 C11.9058824,14.3915966 12.0941176,14.3478992 12.2621849,14.2605042 L19.7109244,10.4655462 L22.4201681,11.8605042 L11.7210084,17.312605 Z M22.4201681,15.994958 L11.7210084,21.4470588 L1.20336134,15.994958 L3.86218487,14.6033613 L11.1697479,18.394958 C11.3445378,18.4857143 11.5294118,18.5294118 11.7210084,18.5294118 C11.9058824,18.5294118 12.0941176,18.4857143 12.2621849,18.4016807 L19.7109244,14.6033613 L22.4201681,15.994958 Z M11.7210084,2.22689076 L22.4201681,7.72605042 L11.7210084,13.1815126 L1.20336134,7.72605042 L11.7210084,2.22689076 Z M23.6235294,11.8638655 C23.6235294,11.4067227 23.3680672,10.9831933 22.9647059,10.7781513 L21.0420168,9.78991597 L22.9613445,8.81176471 C23.3680672,8.60672269 23.6201681,8.18319328 23.6235294,7.72605042 C23.6235294,7.26890756 23.3680672,6.8487395 22.9647059,6.64033613 L12.2655462,1.14117647 C12.0941176,1.05378151 11.9058824,1.01008403 11.7210084,1.01008403 C11.5294118,1.01008403 11.3411765,1.05378151 11.1663866,1.14789916 L0.65210084,6.64705882 C0.25210084,6.85546218 0,7.27226891 0,7.72941176 C0,8.18319328 0.255462185,8.6 0.655462185,8.80840336 L2.54789916,9.78991597 L0.65210084,10.7815126 C0.25210084,10.9932773 0,11.410084 0,11.8638655 C0,12.3176471 0.255462185,12.7344538 0.655462185,12.9428571 L2.54789916,13.9243697 L0.65210084,14.9159664 C0.25210084,15.1243697 0,15.5445378 0,15.9983193 C0,16.4521008 0.255462185,16.8689076 0.655462185,17.0773109 L11.1697479,22.5294118 C11.3445378,22.6168067 11.5294118,22.6638655 11.7210084,22.6638655 C11.9058824,22.6638655 12.0941176,22.6201681 12.2621849,22.5327731 L22.9613445,17.0806723 C23.3680672,16.8722689 23.6201681,16.4521008 23.6235294,15.994958 C23.6235294,15.5378151 23.3680672,15.1176471 22.9647059,14.9092437 L21.0420168,13.9210084 L22.9613445,12.9428571 C23.3680672,12.7378151 23.6235294,12.3210084 23.6235294,11.8638655 Z" id="Capas_1Light"></path>
        </g>
    </g>
</svg>

<svg width="24" height="24" viewBox="0 0 24 24" xmlns="http://www.w3.org/2000/svg"><path d="M11.721 17.313L1.203 11.86l2.66-1.392 7.307 3.788a1.182 1.182 0 001.092.004l7.449-3.795 2.71 1.395-10.7 5.452zm10.7-1.318l-10.7 5.452-10.518-5.452 2.66-1.392 7.307 3.792c.175.09.36.134.551.134.185 0 .373-.043.541-.127l7.449-3.799 2.71 1.392zM11.72 2.227l10.7 5.5-10.7 5.455L1.203 7.726l10.518-5.5zm11.903 9.637c0-.457-.256-.88-.66-1.086l-1.922-.988 1.92-.978a1.223 1.223 0 00.003-2.172l-10.7-5.499a1.203 1.203 0 00-.544-.13c-.192 0-.38.043-.555.137L.652 6.648a1.218 1.218 0 00.003 2.16l1.893.982-1.896.992a1.22 1.22 0 00.003 2.161l1.893.981-1.896.992a1.222 1.222 0 00.003 2.161L11.17 22.53a1.18 1.18 0 001.092.003l10.7-5.451a1.223 1.223 0 00.003-2.171l-1.923-.989 1.92-.978c.406-.205.662-.622.662-1.08z" fill="#5CB615" fill-rule="nonzero"/></svg>
